img/amazon.svg

<svg width="198" height="59" viewBox="0 0 198 59" fill="none" xmlns="http://www.w3.org/2000/svg">
<path d="M28.9669 28.4998C27.8437 26.9764 26.6564 25.7228 26.6564 22.8823V13.4565C26.6564 9.44173 26.9452 5.77611 23.9609 3.015C21.6183 0.793416 17.7194 0 14.735 0C8.91073 0 2.3965 2.15811 1.03268 9.28305C0.888274 10.0289 1.44985 10.4256 1.94724 10.5525L7.88385 11.1873C8.44543 11.1555 8.84655 10.616 8.95886 10.0765C9.4723 7.61685 11.5421 6.42672 13.8847 6.42672C15.1522 6.42672 16.5802 6.90278 17.3183 7.9977C18.1847 9.25131 18.0724 10.9492 18.0724 12.3933V13.1867C14.5104 13.5675 9.87342 13.8373 6.53608 15.2813C4.5512 16.0688 2.85963 17.4417 1.69126 19.2133C0.522904 20.9849 -0.0655765 23.0693 0.0058039 25.1833C0.0058039 31.483 4.01703 34.625 9.18349 34.625C13.5477 34.625 15.9224 33.6094 19.2918 30.2294C20.3989 31.8163 20.7519 32.6097 22.7896 34.2759C23.0183 34.3968 23.2787 34.4464 23.5365 34.4181C23.7943 34.3897 24.0373 34.2848 24.2336 34.1172L28.9508 30.1183C29.4643 29.7058 29.368 29.0552 28.9669 28.4998ZM18.0563 19.3437C18.0563 21.7239 18.1205 23.6758 16.9332 25.7863C15.9544 27.4842 14.3981 28.5315 12.6813 28.5315C10.3227 28.5315 8.95886 26.7542 8.95886 24.1359C8.95886 18.9787 13.6279 18.0424 18.0724 18.0424L18.0563 19.3437ZM109.304 28.4998C108.181 26.9764 106.993 25.7228 106.993 22.8823V13.4565C106.993 9.44173 107.282 5.77611 104.298 3.015C101.939 0.793416 98.0402 0 95.0719 0C89.2316 0 82.7173 2.15811 81.3696 9.28305C81.2091 10.0289 81.7867 10.4415 82.2841 10.5525L88.2207 11.1873C88.7663 11.1555 89.1834 10.616 89.2797 10.0765C89.7931 7.61685 91.879 6.42672 94.2055 6.42672C95.473 6.42672 96.901 6.90278 97.6391 7.9977C98.5055 9.25131 98.3932 10.9492 98.3932 12.3933V13.1867C94.8473 13.5834 90.1943 13.8373 86.873 15.2813C84.8837 16.0644 83.1874 17.4357 82.0157 19.2079C80.844 20.9802 80.2542 23.067 80.3266 25.1833C80.3266 31.483 84.3379 34.625 89.5043 34.625C93.8685 34.625 96.2432 33.6094 99.6126 30.2294C100.72 31.8163 101.089 32.6097 103.126 34.2759C103.355 34.399 103.615 34.4499 103.874 34.4215C104.132 34.3931 104.375 34.2869 104.57 34.1172V34.1331C105.806 33.054 108.036 31.1498 109.288 30.1183C109.769 29.7058 109.721 29.0552 109.304 28.4998ZM97.254 25.7863C96.2753 27.4842 94.7189 28.5315 93.0021 28.5315C90.6435 28.5315 89.2797 26.7542 89.2797 24.1359C89.2797 18.9787 93.9648 18.0424 98.3932 18.0424V19.3595C98.3932 21.7239 98.4574 23.6758 97.254 25.7863ZM180.046 34.1965H173.933C173.643 34.1807 173.37 34.0577 173.168 33.8519C172.966 33.6461 172.849 33.3726 172.842 33.0858L172.826 1.98356C172.854 1.69742 172.99 1.43233 173.207 1.24115C173.424 1.04997 173.706 0.94675 173.997 0.9521H179.677C179.93 0.958965 180.174 1.04814 180.372 1.20587C180.569 1.3636 180.708 1.58112 180.768 1.82487V6.58541H180.896C182.613 2.33266 185.004 0.301502 189.239 0.301502C190.652 0.232214 192.057 0.533278 193.314 1.17421C194.571 1.81514 195.634 2.77317 196.395 3.95124C198 6.45846 198 10.6319 198 13.6469V33.2286C197.954 33.5045 197.808 33.7545 197.59 33.9324C197.371 34.1103 197.095 34.2042 196.813 34.1965H190.667C190.4 34.1849 190.146 34.0821 189.947 33.9056C189.748 33.7291 189.617 33.4898 189.576 33.2286V16.3286C189.576 12.9328 189.978 7.96597 185.758 7.96597C184.266 7.96597 182.886 8.93395 182.212 10.4415C181.456 12.31 181.122 14.3192 181.233 16.3286V33.0858C181.221 33.3874 181.089 33.6723 180.868 33.8798C180.646 34.0873 180.351 34.2009 180.046 34.1965ZM154.229 0.301502C163.327 0.301502 168.237 8.02944 168.237 17.8362C168.237 27.3255 162.814 34.863 154.229 34.863C145.309 34.863 140.431 27.1351 140.431 17.5188C140.431 7.83903 145.357 0.301502 154.229 0.301502ZM154.294 6.64888C149.769 6.64888 149.48 12.7424 149.48 16.5349C149.48 20.3275 149.416 28.4363 154.229 28.4363C158.979 28.4363 159.203 21.8985 159.203 17.9155C159.203 15.2972 159.091 12.1394 158.289 9.66388C157.599 7.50577 156.235 6.64888 154.278 6.64888H154.294ZM40.9845 34.1965H34.8553C34.5783 34.1868 34.314 34.0789 34.1108 33.8924C33.9076 33.706 33.7789 33.4534 33.7482 33.181V2.07876C33.7482 1.44402 34.2938 0.967974 34.9356 0.967974H40.6476C41.2412 0.983843 41.7226 1.44402 41.7707 1.99942V6.06175H41.883C43.3591 2.12637 46.167 0.301502 49.9376 0.301502C53.7723 0.301502 56.179 2.12637 57.8958 6.06175C58.5047 4.33837 59.6522 2.85129 61.1724 1.81573C62.6925 0.780167 64.5064 0.249849 66.3515 0.301502C68.9187 0.301502 71.7266 1.34882 73.4434 3.69735C75.4008 6.31565 74.9997 10.1241 74.9997 13.4565V33.0858C74.9997 33.7046 74.4542 34.1965 73.8124 34.1965H67.6832C67.3923 34.1844 67.1171 34.0625 66.9142 33.8559C66.7112 33.6493 66.596 33.3737 66.5922 33.0858V16.5826C66.5922 15.2813 66.7045 12.0124 66.4157 10.7747C65.9504 8.68005 64.5866 8.07705 62.8056 8.07705C62.0102 8.10313 61.2399 8.35895 60.5898 8.81295C59.9398 9.26696 59.4383 9.89928 59.1473 10.6319C58.5056 12.2187 58.5858 14.8211 58.5858 16.5984V33.0858C58.5858 33.7205 58.0563 34.1965 57.3984 34.1965H51.2693C50.9796 34.1807 50.7066 34.0577 50.5044 33.8519C50.3023 33.6461 50.1859 33.3726 50.1782 33.0858V16.5826C50.1782 13.1232 50.7398 8.01358 46.3916 8.01358C41.9953 8.01358 42.1558 12.9963 42.1558 16.5826V33.0858C42.1558 33.7205 41.6263 34.1965 40.9845 34.1965ZM114.454 6.44258V1.99942C114.454 1.70482 114.572 1.42228 114.783 1.21397C114.994 1.00565 115.279 0.88863 115.577 0.88863H135.746C136.388 0.88863 136.901 1.33294 136.901 1.99942V5.80785C136.901 6.44258 136.355 7.28362 135.393 8.60071L124.964 23.3425C128.814 23.2473 132.922 23.8186 136.452 25.7704C137.238 26.2147 137.447 26.8812 137.511 27.5159V32.2606C137.511 32.8953 136.789 33.657 136.035 33.2762C132.741 31.6001 129.089 30.7283 125.385 30.7339C121.681 30.7394 118.032 31.622 114.743 33.3079C114.053 33.6729 113.315 32.9271 113.315 32.2765V27.7698C113.315 27.0557 113.315 25.818 114.069 24.7231L126.151 7.56925H115.625C115.475 7.57349 115.326 7.54791 115.186 7.49399C115.046 7.44007 114.918 7.35892 114.81 7.25535C114.703 7.15178 114.617 7.02788 114.559 6.891C114.5 6.75412 114.47 6.60704 114.47 6.45846L114.454 6.44258ZM127.579 40.7343C126.103 38.8777 117.856 39.8616 114.133 40.29C113.01 40.4328 112.85 39.4649 113.86 38.7508C120.439 34.1807 131.237 35.4978 132.473 37.037C133.756 38.5762 132.152 49.2716 125.974 54.3812C125.028 55.1747 124.129 54.7462 124.546 53.7147C125.942 50.2872 129.039 42.6068 127.579 40.7343ZM122.781 46.1455C111.277 54.5399 94.6066 58.999 80.2464 58.999C61.0594 59.0984 42.5262 52.1096 28.2769 39.4014C27.2019 38.4493 28.1646 37.1322 29.4643 37.8622C45.294 46.8143 63.2148 51.5188 81.4498 51.509C94.2055 51.509 108.213 48.8907 121.113 43.4796C123.054 42.6862 124.691 44.7491 122.781 46.1455Z" fill="#ED7339"/>
</svg>

<svg xmlns="http://www.w3.org/2000/svg" width="198" height="59" fill="none"  xmlns:v="https://vecta.io/nano"><path d="M28.967 28.5c-1.123-1.523-2.31-2.777-2.31-5.617v-9.426c0-4.015.289-7.68-2.696-10.441C21.618.793 17.719 0 14.735 0 8.911 0 2.397 2.158 1.033 9.283c-.144.746.417 1.143.915 1.269l5.937.635c.562-.032.963-.571 1.075-1.111.513-2.46 2.583-3.65 4.926-3.65 1.268 0 2.696.476 3.434 1.571.866 1.254.754 2.951.754 4.396v.793c-3.562.381-8.199.651-11.536 2.095a10.39 10.39 0 0 0-4.845 3.932C.523 20.985-.066 23.069.006 25.183c0 6.3 4.011 9.442 9.178 9.442 4.364 0 6.739-1.016 10.108-4.396 1.107 1.587 1.46 2.38 3.498 4.047.229.121.489.17.747.142a1.29 1.29 0 0 0 .697-.301l4.717-3.999c.514-.413.417-1.063.016-1.619zm-10.911-9.156c0 2.38.064 4.332-1.123 6.443-.979 1.698-2.535 2.745-4.252 2.745-2.359 0-3.722-1.777-3.722-4.396 0-5.157 4.669-6.093 9.114-6.093l-.016 1.301zm91.248 9.156c-1.123-1.523-2.311-2.777-2.311-5.617v-9.426c0-4.015.289-7.68-2.695-10.441C101.939.793 98.04 0 95.072 0c-5.84 0-12.355 2.158-13.702 9.283-.16.746.417 1.158.914 1.269l5.937.635c.546-.032.963-.571 1.059-1.111.513-2.46 2.599-3.65 4.926-3.65 1.267 0 2.695.476 3.434 1.571.866 1.254.754 2.951.754 4.396v.793c-3.546.397-8.199.651-11.52 2.095-1.989.783-3.686 2.154-4.857 3.927a10.2 10.2 0 0 0-1.689 5.975c0 6.3 4.011 9.442 9.178 9.442 4.364 0 6.739-1.016 10.108-4.396 1.107 1.587 1.476 2.38 3.513 4.047a1.28 1.28 0 0 0 .748.146 1.27 1.27 0 0 0 .696-.304v.016l4.718-4.015c.481-.413.433-1.063.016-1.619zm-12.05-2.713c-.979 1.698-2.535 2.745-4.252 2.745-2.359 0-3.722-1.777-3.722-4.396 0-5.157 4.685-6.093 9.113-6.093v1.317c0 2.364.064 4.316-1.139 6.427zm82.792 8.41h-6.113a1.16 1.16 0 0 1-.765-.345c-.202-.206-.319-.479-.326-.766l-.016-31.102c.028-.286.164-.551.381-.742s.499-.294.79-.289h5.68c.253.007.497.096.695.254s.336.375.396.619v4.761h.128c1.717-4.253 4.108-6.284 8.343-6.284a8.1 8.1 0 0 1 4.075.873 7.98 7.98 0 0 1 3.081 2.777C198 6.458 198 10.632 198 13.647v19.582c-.046.276-.192.526-.41.704a1.18 1.18 0 0 1-.777.264h-6.146a1.16 1.16 0 0 1-.72-.291 1.14 1.14 0 0 1-.371-.677v-16.9c0-3.396.402-8.363-3.818-8.363-1.492 0-2.872.968-3.546 2.476a13.68 13.68 0 0 0-.979 5.887v16.757c-.012.302-.144.587-.365.794a1.18 1.18 0 0 1-.822.317zM154.229.302c9.098 0 14.008 7.728 14.008 17.535 0 9.489-5.423 17.027-14.008 17.027-8.92 0-13.798-7.728-13.798-17.344 0-9.68 4.926-17.217 13.798-17.217zm.065 6.347c-4.525 0-4.814 6.094-4.814 9.886s-.064 11.901 4.749 11.901c4.75 0 4.974-6.538 4.974-10.521 0-2.618-.112-5.776-.914-8.252-.69-2.158-2.054-3.015-4.011-3.015h.016zM40.985 34.197h-6.129a1.16 1.16 0 0 1-.745-.304 1.14 1.14 0 0 1-.363-.711V2.079c0-.635.546-1.111 1.187-1.111h5.712c.594.016 1.075.476 1.123 1.031v4.062h.112c1.476-3.935 4.284-5.76 8.055-5.76 3.835 0 6.241 1.825 7.958 5.76.609-1.723 1.756-3.21 3.277-4.246S64.506.25 66.352.302c2.567 0 5.375 1.047 7.092 3.396C75.401 6.316 75 10.124 75 13.457v19.629c0 .619-.546 1.111-1.187 1.111h-6.129c-.291-.012-.566-.134-.769-.341a1.12 1.12 0 0 1-.322-.77V16.583c0-1.301.112-4.57-.177-5.808-.465-2.095-1.829-2.698-3.61-2.698-.795.026-1.566.282-2.216.736a4.04 4.04 0 0 0-1.442 1.819c-.642 1.587-.562 4.189-.562 5.967v16.487c0 .635-.529 1.111-1.187 1.111h-6.129a1.16 1.16 0 0 1-.765-.345c-.202-.206-.319-.479-.326-.766V16.583c0-3.459.562-8.569-3.787-8.569-4.396 0-4.236 4.983-4.236 8.569v16.503c0 .635-.529 1.111-1.171 1.111zm73.47-27.754V1.999c0-.295.118-.577.329-.785a1.13 1.13 0 0 1 .794-.325h20.169c.642 0 1.155.444 1.155 1.111v3.808c0 .635-.546 1.476-1.508 2.793l-10.429 14.742c3.85-.095 7.958.476 11.488 2.428.786.444.995 1.111 1.059 1.745v4.745c0 .635-.722 1.396-1.476 1.016a23.41 23.41 0 0 0-21.292.032c-.69.365-1.428-.381-1.428-1.031V27.77c0-.714 0-1.952.754-3.047l12.082-17.154h-10.526a1.13 1.13 0 0 1-.815-.314 1.11 1.11 0 0 1-.251-.364 1.09 1.09 0 0 1-.089-.433l-.016-.016zm13.125 34.292c-1.476-1.857-9.723-.873-13.446-.444-1.123.143-1.283-.825-.273-1.539 6.579-4.57 17.377-3.253 18.613-1.714 1.283 1.539-.321 12.235-6.499 17.344-.946.794-1.845.365-1.428-.666 1.396-3.428 4.493-11.108 3.033-12.98zm-4.798 5.411c-11.504 8.394-28.174 12.854-42.535 12.854-19.187.099-37.72-6.889-51.969-19.598-1.075-.952-.112-2.269 1.187-1.539 15.83 8.952 33.75 13.657 51.985 13.647 12.756 0 26.763-2.618 39.663-8.029 1.941-.793 3.578 1.27 1.668 2.666z" fill="#ed7339"/></svg>
